!!!OTL: No_128_Sleep,_My_Baby.krn
!!!REG: Southwest
!!!LANG: Non-Tone
!!!LING_GROUP: Yuman-Cochimi
!!!SOCIAL_FUNCTION: songs for children
**kern
*staff1
=1-
*clefF4
*k[b-]
*M3/4
8F\L
8B-\J
4A\
4G\
=2
8F\L
8F\J
4F\
4F\
=3
4r
8D\L
8D\J
8.G\L
16F\Jk
=4
2G\
4r
=5||
*M2/4
8F\L
8F\J
8.D\L
16D\Jk
=6||
*M3/4
2F\
4r
=7||
*M2/4
8B-\L
8B-\J
8.G\L
16F\Jk
=8
8G\L
8G\J
8F\
8r
=9
8D\L
8D\J
8.F\L
16D\Jk
=10||
*M3/4
2F\
4r
=11||
*M2/4
8F\L
8F\J
8.D\L
16D\Jk
=12
2D\
==
*-
